icons/scalable/migasfree-ok.svg

<?xml version="1.0" encoding="UTF-8" standalone="no"?>
<!-- Created with Inkscape (http://www.inkscape.org/) -->

<svg
   xmlns:dc="http://purl.org/dc/elements/1.1/"
   xmlns:cc="http://creativecommons.org/ns#"
   xmlns:rdf="http://www.w3.org/1999/02/22-rdf-syntax-ns#"
   xmlns:svg="http://www.w3.org/2000/svg"
   xmlns="http://www.w3.org/2000/svg"
   xmlns:xlink="http://www.w3.org/1999/xlink"
   xmlns:inkscape="http://www.inkscape.org/namespaces/inkscape"
   version="1.0"
   width="47.999992"
   height="48"
   id="svg2">
  <defs
     id="defs4">
    <inkscape:path-effect
       effect="bend_path"
       id="path-effect2627" />
    <linearGradient
       x1="20.494444"
       y1="6.0097799"
       x2="20.494444"
       y2="47.760197"
       id="linearGradient3406"
       xlink:href="#linearGradient3400"
       gradientUnits="userSpaceOnUse" />
    <linearGradient
       id="linearGradient3400">
      <stop
         id="stop3402"
         style="stop-color:#ffffff;stop-opacity:1"
         offset="0" />
      <stop
         id="stop3404"
         style="stop-color:#ffffff;stop-opacity:0"
         offset="1" />
    </linearGradient>
    <linearGradient
       x1="-84.343536"
       y1="-5.3878593"
       x2="-91.513138"
       y2="24.558243"
       id="linearGradient2628"
       xlink:href="#linearGradient2264"
       gradientUnits="userSpaceOnUse"
       gradientTransform="matrix(1.017301,-0.243559,0.243559,1.017301,110.52469,-7.9553513)" />
    <linearGradient
       id="linearGradient2264">
      <stop
         id="stop2266"
         style="stop-color:#d7e866;stop-opacity:1"
         offset="0" />
      <stop
         id="stop2268"
         style="stop-color:#8cab2a;stop-opacity:1"
         offset="1" />
    </linearGradient>
    <radialGradient
       cx="24.837126"
       cy="36.421127"
       r="15.644737"
       fx="24.837126"
       fy="36.421127"
       id="radialGradient1444"
       xlink:href="#linearGradient8662"
       gradientUnits="userSpaceOnUse"
       gradientTransform="matrix(1,0,0,0.536723,0,16.87306)" />
    <linearGradient
       id="linearGradient8662">
      <stop
         id="stop8664"
         style="stop-color:#000000;stop-opacity:1"
         offset="0" />
      <stop
         id="stop8666"
         style="stop-color:#000000;stop-opacity:0"
         offset="1" />
    </linearGradient>
  </defs>
  <metadata
     id="metadata7">
    <rdf:RDF>
      <cc:Work
         rdf:about="">
        <dc:format>image/svg+xml</dc:format>
        <dc:type
           rdf:resource="http://purl.org/dc/dcmitype/StillImage" />
        <dc:title></dc:title>
      </cc:Work>
    </rdf:RDF>
  </metadata>
  <g
     transform="translate(-409.93872,-324.46271)"
     id="layer1">
    <g
       transform="matrix(0.1752836,0,0,0.1752836,357.87637,288.17239)"
       id="g2385">
      <path
         d="m 359.84121,422.66665 c 17.16887,8.15768 200.19256,-14.53545 190.65916,-21.98127 0.25846,-53.82004 -72.75382,-140.39226 -72.75382,-140.39226 -97.63364,2.19781 -156.7331,25.62844 -156.7331,33.5001 -6.16605,0 -12.13088,34.92399 38.98938,129.17879"
         id="path7004"
         style="fill:none;stroke:#ff6600;stroke-width:40;stroke-linecap:round;stroke-linejoin:round;stroke-miterlimit:4;stroke-opacity:1;stroke-dasharray:none" />
      <path
         d="m 99,188.98618 c 0.333333,0 0.666667,0 0,0 z"
         transform="translate(239.75989,167.58713)"
         id="path4849"
         style="fill:none;stroke:#000000;stroke-width:1px;stroke-linecap:butt;stroke-linejoin:miter;stroke-opacity:1" />
      <path
         d="m 422.52326,249.90699 c -6.39981,0.53506 -12.99555,4.09097 -17.61874,12.11738 -4.14372,7.81016 -4.84073,19.64246 -3.11065,29.52092 2.14271,12.6547 8.35659,23.5367 15.96252,25.69904 7.1416,2.14855 14.53656,-1.29374 20.67501,-7.719 4.62907,-4.79836 9.0278,-11.71293 10.42843,-21.09828 1.81609,-11.3853 -1.541,-24.13043 -7.25564,-30.16108 -5.43719,-5.98302 -11.98332,-8.10383 -18.33235,-8.39097 -0.24952,0.0107 -0.49906,0.0213 -0.74858,0.032 l 0,-1e-5 z"
         id="path3180"
         style="fill:#feda00;fill-opacity:1;fill-rule:nonzero;stroke:#feda00;stroke-width:0.67614418;stroke-linecap:round;stroke-linejoin:round;stroke-miterlimit:4;stroke-opacity:1;stroke-dasharray:none;stroke-dashoffset:200" />
      <path
         d="m 215,100.2803 a 9,6 0 1 1 -18,0 9,6 0 1 1 18,0 z"
         transform="matrix(1.8413123,0,0,2.4506692,82.116143,70.135995)"
         id="path3190"
         style="fill:#feda00;fill-opacity:1;fill-rule:nonzero;stroke:none" />
    </g>
    <g
       transform="translate(409.93872,322.47548)"
       id="g2485">
      <path
         d="m 40.481863,36.421127 c 0,4.637476 -7.004387,8.396894 -15.644737,8.396894 -8.64035,0 -15.6447375,-3.759418 -15.6447375,-8.396894 0,-4.637476 7.0043875,-8.396894 15.6447375,-8.396894 8.64035,0 15.644737,3.759418 15.644737,8.396894 z"
         transform="matrix(1.214466,0,0,0.595458,-6.163846,20.31274)"
         id="path8660"
         style="opacity:0.20454544;fill:url(#radialGradient1444);fill-opacity:1;fill-rule:evenodd;stroke:none;stroke-width:1;marker:none;visibility:visible;display:inline;overflow:visible" />
      <path
         d="m 33.706448,5.4818293 c -0.559734,-0.056806 -1.116221,0.217337 -1.403811,0.7436469 L 20.049307,28.645074 12.17121,22.380993 c -0.701747,-0.383453 -1.577286,-0.136769 -1.960742,0.564978 l -3.5328714,4.535744 c -0.3834475,0.701741 -0.1254891,1.577017 0.5762529,1.960469 0,0 14.3844195,11.880283 14.4021675,11.889074 0.164469,0.08987 0.336465,0.135093 0.511297,0.157184 0.571121,0.07217 1.155595,-0.196162 1.449176,-0.733433 L 40.141725,10.519399 C 40.525176,9.8176549 40.267222,8.9423801 39.565474,8.558928 L 34.26311,5.6492257 C 34.087671,5.553362 33.893026,5.5007637 33.706448,5.4818293 z"
         id="path1542"
         style="fill:url(#linearGradient2628);fill-opacity:1;fill-rule:nonzero;stroke:#42770c;stroke-width:1;stroke-linecap:round;stroke-linejoin:round;stroke-miterlimit:4;stroke-opacity:1;stroke-dasharray:none;stroke-dashoffset:0;marker:none;visibility:visible;display:inline;overflow:visible" />
      <path
         d="M 32.938536,7.2012775 26.730268,18.60791 21.197213,28.668822 c -0.178482,0.181096 -0.123845,0.754094 -0.902701,0.952966 -0.538869,0.137595 -0.636352,-0.06289 -1.204172,-0.427914 l -6.950556,-5.492153 c -0.7733,-0.621665 -0.749753,-0.589365 -1.297288,-0.03737 L 8.0515824,27.18582 c -0.7518117,0.804672 -0.6353589,1.290849 0.3017539,1.891047 0,0 13.0781537,10.780055 13.0949407,10.788373 0.155564,0.085 0.0892,0.114145 0.757862,0.57814 0.428927,0.297637 0.807539,-0.647982 1.083435,-1.15286 L 39.190779,10.274963 C 39.55113,9.6155282 39.523767,9.624421 38.860008,9.2617466 L 34.11801,6.7472827 C 33.434075,6.3758505 33.430508,6.3800895 32.938536,7.2012775 z"
         id="path1544"
         style="opacity:0.4;fill:none;stroke:url(#linearGradient3406);stroke-width:1;stroke-linecap:round;stroke-linejoin:round;stroke-miterlimit:4;stroke-opacity:1;stroke-dasharray:none;stroke-dashoffset:0;marker:none;visibility:visible;display:inline;overflow:visible" />
    </g>
  </g>
</svg>

<?xml version="1.0" encoding="UTF-8" standalone="no"?>
<!-- Created with Inkscape (http://www.inkscape.org/) -->
<svg
   xmlns:dc="http://purl.org/dc/elements/1.1/"
   xmlns:cc="http://creativecommons.org/ns#"
   xmlns:rdf="http://www.w3.org/1999/02/22-rdf-syntax-ns#"
   xmlns:svg="http://www.w3.org/2000/svg"
   xmlns="http://www.w3.org/2000/svg"
   xmlns:xlink="http://www.w3.org/1999/xlink"
   xmlns:sodipodi="http://sodipodi.sourceforge.net/DTD/sodipodi-0.dtd"
   xmlns:inkscape="http://www.inkscape.org/namespaces/inkscape"
   width="47.999992"
   height="48"
   id="svg2"
   sodipodi:version="0.32"
   inkscape:version="0.46"
   sodipodi:docname="migasfree-ok2.svg"
   inkscape:output_extension="org.inkscape.output.svg.inkscape"
   inkscape:export-filename="/home/alberto/Documentos/Documentacion/proyectos/migas/logos/migas2_1280.png"
   inkscape:export-xdpi="359.45001"
   inkscape:export-ydpi="359.45001"
   version="1.0">
  <sodipodi:namedview
     id="base"
     pagecolor="#ffffff"
     bordercolor="#666666"
     borderopacity="1.0"
     inkscape:pageopacity="0.0"
     inkscape:pageshadow="2"
     inkscape:zoom="10.666667"
     inkscape:cx="23.999997"
     inkscape:cy="24.000001"
     inkscape:document-units="px"
     inkscape:current-layer="layer1"
     showgrid="false"
     inkscape:window-width="1024"
     inkscape:window-height="734"
     inkscape:window-x="50"
     inkscape:window-y="0"
     showborder="true"
     borderlayer="false"
     inkscape:showpageshadow="false"
     inkscape:window-maximized="0" />
  <defs
     id="defs4">
    <inkscape:perspective
       sodipodi:type="inkscape:persp3d"
       inkscape:vp_x="0 : 24 : 1"
       inkscape:vp_y="0 : 1000 : 0"
       inkscape:vp_z="47.999992 : 24 : 1"
       inkscape:persp3d-origin="23.999996 : 16 : 1"
       id="perspective13" />
    <inkscape:path-effect
       effect="bend_path"
       id="path-effect2627"
       bendpath="m 317.018,342.352 233.842,0"
       prop_scale="1" />
    <linearGradient
       gradientUnits="userSpaceOnUse"
       xlink:href="#linearGradient3400"
       id="linearGradient3406"
       y2="47.760197"
       x2="20.494444"
       y1="6.0097799"
       x1="20.494444" />
    <linearGradient
       id="linearGradient3400">
      <stop
         offset="0"
         style="stop-color:white;stop-opacity:1"
         id="stop3402" />
      <stop
         offset="1"
         style="stop-color:white;stop-opacity:0"
         id="stop3404" />
    </linearGradient>
    <linearGradient
       gradientTransform="matrix(1.017301,-0.243559,0.243559,1.017301,110.52469,-7.9553513)"
       gradientUnits="userSpaceOnUse"
       xlink:href="#linearGradient2264"
       id="linearGradient2628"
       y2="24.558243"
       x2="-91.513138"
       y1="-5.3878593"
       x1="-84.343536" />
    <linearGradient
       id="linearGradient2264">
      <stop
         offset="0"
         style="stop-color:#d7e866;stop-opacity:1"
         id="stop2266" />
      <stop
         offset="1"
         style="stop-color:#8cab2a;stop-opacity:1"
         id="stop2268" />
    </linearGradient>
    <radialGradient
       gradientTransform="matrix(1,0,0,0.536723,0,16.87306)"
       gradientUnits="userSpaceOnUse"
       xlink:href="#linearGradient8662"
       id="radialGradient1444"
       fy="36.421127"
       fx="24.837126"
       r="15.644737"
       cy="36.421127"
       cx="24.837126" />
    <linearGradient
       id="linearGradient8662">
      <stop
         offset="0"
         style="stop-color:black;stop-opacity:1"
         id="stop8664" />
      <stop
         offset="1"
         style="stop-color:black;stop-opacity:0"
         id="stop8666" />
    </linearGradient>
    <inkscape:perspective
       id="perspective2470"
       inkscape:persp3d-origin="24 : 16 : 1"
       inkscape:vp_z="48 : 24 : 1"
       inkscape:vp_y="0 : 1000 : 0"
       inkscape:vp_x="0 : 24 : 1"
       sodipodi:type="inkscape:persp3d" />
  </defs>
  <metadata
     id="metadata7">
    <rdf:RDF>
      <cc:Work
         rdf:about="">
        <dc:format>image/svg+xml</dc:format>
        <dc:type
           rdf:resource="http://purl.org/dc/dcmitype/StillImage" />
        <dc:title />
      </cc:Work>
    </rdf:RDF>
  </metadata>
  <g
     id="layer1"
     inkscape:groupmode="layer"
     inkscape:label="Capa 1"
     transform="translate(-409.93872,-324.46271)">
    <g
       id="g2385"
       transform="matrix(0.1752836,0,0,0.1752836,357.87637,288.17239)">
      <path
         inkscape:connector-curvature="0"
         sodipodi:nodetypes="ccccc"
         inkscape:original-d="M 360.5933,422.66649 C 377.6946,430.82417 559.99798,408.13104 550.5021,400.68522 C 550.75954,346.86518 478.03461,260.29296 478.03461,260.29296 C 380.78522,262.49077 321.91835,285.9214 321.91835,293.79306 C 315.77656,293.79306 309.83521,328.71705 360.75428,422.97185"
         inkscape:path-effect="#path-effect2627"
         inkscape:export-ydpi="28.218977"
         inkscape:export-xdpi="28.218977"
         inkscape:export-filename="/home/alberto/Documentos/Documentacion/proyectos/Proyectos/migas/logos/bueno/logo_64.png"
         style="fill:none;stroke:#ff6600;stroke-width:40;stroke-linecap:round;stroke-linejoin:round;stroke-miterlimit:4;stroke-dasharray:none;stroke-opacity:1"
         d="M 359.841,422.667 C 377.01,430.824 560.034,408.131 550.5,400.685 C 550.759,346.865 477.747,260.293 477.747,260.293 C 380.113,262.491 321.013,285.922 321.013,293.793 C 314.847,293.793 308.883,328.717 360.003,422.972"
         id="path7004" />
      <path
         transform="translate(239.75989,167.58713)"
         id="path4849"
         d="M 99,188.98618 C 99.333333,188.98618 99.666667,188.98618 99,188.98618 z"
         style="fill:none;fill-rule:evenodd;stroke:#000000;stroke-width:1px;stroke-linecap:butt;stroke-linejoin:miter;stroke-opacity:1" />
      <path
         inkscape:connector-curvature="0"
         id="path3180"
         d="M 422.52326,249.90699 C 416.12345,250.44205 409.52771,253.99796 404.90452,262.02437 C 400.7608,269.83453 400.06379,281.66683 401.79387,291.54529 C 403.93658,304.19999 410.15046,315.08199 417.75639,317.24433 C 424.89799,319.39288 432.29295,315.95059 438.4314,309.52533 C 443.06047,304.72697 447.4592,297.8124 448.85983,288.42705 C 450.67592,277.04175 447.31883,264.29662 441.60419,258.26597 C 436.167,252.28295 429.62087,250.16214 423.27184,249.875 C 423.02232,249.8857 422.77278,249.8963 422.52326,249.907 L 422.52326,249.90699 z"
         style="fill:#feda00;fill-opacity:1;fill-rule:nonzero;stroke:#feda00;stroke-width:0.67614418;stroke-linecap:round;stroke-linejoin:round;stroke-miterlimit:4;stroke-dasharray:none;stroke-dashoffset:200;stroke-opacity:1" />
      <path
         transform="matrix(1.8413123,0,0,2.4506692,82.116143,70.135995)"
         d="M 215,100.2803 A 9,6 0 1 1 197,100.2803 A 9,6 0 1 1 215,100.2803 z"
         sodipodi:ry="6"
         sodipodi:rx="9"
         sodipodi:cy="100.2803"
         sodipodi:cx="206"
         id="path3190"
         style="fill:#feda00;fill-opacity:1;fill-rule:nonzero;stroke:none"
         sodipodi:type="arc" />
    </g>
    <g
       id="g2485"
       transform="translate(409.93872,322.47548)">
      <path
         style="opacity:0.20454544;fill:url(#radialGradient1444);fill-opacity:1;fill-rule:evenodd;stroke:none;stroke-width:1;marker:none;visibility:visible;display:inline;overflow:visible"
         id="path8660"
         transform="matrix(1.214466,0,0,0.595458,-6.163846,20.31274)"
         d="M 40.481863,36.421127 C 40.481863,41.058603 33.477476,44.818021 24.837126,44.818021 C 16.196776,44.818021 9.1923885,41.058603 9.1923885,36.421127 C 9.1923885,31.783651 16.196776,28.024233 24.837126,28.024233 C 33.477476,28.024233 40.481863,31.783651 40.481863,36.421127 z" />
      <path
         style="fill:url(#linearGradient2628);fill-opacity:1;fill-rule:nonzero;stroke:#42770c;stroke-width:1;stroke-linecap:round;stroke-linejoin:round;marker:none;stroke-miterlimit:4;stroke-dasharray:none;stroke-dashoffset:0;stroke-opacity:1;visibility:visible;display:inline;overflow:visible"
         id="path1542"
         d="M 33.706448,5.4818293 C 33.146714,5.4250233 32.590227,5.6991663 32.302637,6.2254762 L 20.049307,28.645074 L 12.17121,22.380993 C 11.469463,21.99754 10.593924,22.244224 10.210468,22.945971 L 6.6775966,27.481715 C 6.2941491,28.183456 6.5521075,29.058732 7.2538495,29.442184 C 7.2538495,29.442184 21.638269,41.322467 21.656017,41.331258 C 21.820486,41.421128 21.992482,41.466351 22.167314,41.488442 C 22.738435,41.560612 23.322909,41.29228 23.61649,40.755009 L 40.141725,10.519399 C 40.525176,9.8176549 40.267222,8.9423801 39.565474,8.558928 L 34.26311,5.6492257 C 34.087671,5.553362 33.893026,5.5007637 33.706448,5.4818293 z" />
      <path
         style="opacity:0.4;fill:none;stroke:url(#linearGradient3406);stroke-width:1;stroke-linecap:round;stroke-linejoin:round;marker:none;stroke-miterlimit:4;stroke-dasharray:none;stroke-dashoffset:0;stroke-opacity:1;visibility:visible;display:inline;overflow:visible"
         id="path1544"
         d="M 32.938536,7.2012775 L 26.730268,18.60791 L 21.197213,28.668822 C 21.018731,28.849918 21.073368,29.422916 20.294512,29.621788 C 19.755643,29.759383 19.65816,29.558898 19.09034,29.193874 L 12.139784,23.701721 C 11.366484,23.080056 11.390031,23.112356 10.842496,23.664351 L 8.0515824,27.18582 C 7.2997707,27.990492 7.4162235,28.476669 8.3533363,29.076867 C 8.3533363,29.076867 21.43149,39.856922 21.448277,39.86524 C 21.603841,39.95024 21.537477,39.979385 22.206139,40.44338 C 22.635066,40.741017 23.013678,39.795398 23.289574,39.29052 L 39.190779,10.274963 C 39.55113,9.6155282 39.523767,9.624421 38.860008,9.2617466 L 34.11801,6.7472827 C 33.434075,6.3758505 33.430508,6.3800895 32.938536,7.2012775 z" />
    </g>
  </g>
</svg>
